X:80
T:Polska efter Magnus Theorin (260)
R:Slängpolska
Z:2007-09-05
S:Efter Magnus Theorin
S:Känd genom [[Grupper/Sågskära]]
B:[[Notböcker/Småländsk musiktradition]] nr I-260
O:Växjö, Småland
M:3/4
L:1/8
K:Dm
dD FA df|eA ce gf|ed gf ed|cB/2c/2 A2A2|
dD FA df|eA ce gf|ed gf ed|cB/2c/2 d2d2:|
|:aF Fa af|gE Eg ge|f2d2 gf/2e/2|cB/2c/2 A2A2|
aF Fa af|gE Eg ge|fd aa gf|ed/2c/2 d2d2:|
(:musicend:)

(:title Polska efter Magnus Theorin (260):)

%green% Den här uppteckningen verkar skilja sig från [[http://www.bluerose.karenlmyers.org/IncipitsPolskaSlangSouthern13.html|Karin Myers uppteckning (pdf)]]. Är det något fel i denna uppteckning eller är det helt enkelt olika varianter? (det är bland annat att intervallen i första och andra takten av andrareprisen är olika i versionen här som får mig att undra) / Nils

%red% Hade skrivit lite fel men nu har jag korrigerat så att den är som versionen i Småländsk musiktradition. Möjligen kan versionen i Sv.L Skåne vara aningen annorlunda /Jon

(:music:)
